X: 571
M: C
L: 1/16
K: G
d2 |\
g2b2 g2b2 g2fe d2d2 | (efg)e (fga)f g4 z2d2 |\
g2ba g2ba g2fe d2cB | cBcA d2D2 G6 :|\
|: e2 |\
d2 g4 d2 Tc3B c2dc | (Bcd2) c2A2 B2 A4 d2 |
"^#"e3f e2f2 g2(fe) d4 | G(AB2) A2G2 F2 G4 d2 |\
(ef)g2 (fg)a2 g2 b4 g2 | f4 Te4 d4 z2B2 |\
(cde2) d2c2 (Bcd2) c2B2 | (cde2) d2c2 (Bcd2) c2B2 |
g2 b4 d2e2 g4 B2 | e2e2 (fga)c B4 z2B2 |\
"^#"e3f e2fe d2g2- gfed | cBAG D2F2 G6 |]

